images/RNDR.svg

<svg height="250" viewBox="0 0 250 250" width="250" xmlns="http://www.w3.org/2000/svg"><path d="m172.054688 7.882812c-14.597657-4.71875-30.222657-7.382812-46.101563-7.851562-14.472656.183594-28.804687 2.210938-42.378906 5.996094-44.882813 13.007812-84.003907 67.519531-83.574219 122.03125 0 5.378906 1.515625 61.949218 52.0625 98.96875 10.472656 8.039062 23.070312 14.335937 36.980469 18.484375 39.511719 11 76.722656-1.539063 82.320312-3.46875 59.472657-20.023438 78.539063-79.9375 78.503907-117.699219.035156-52.011719-36.417969-102.484375-77.8125-116.460938zm0 0" fill="#163448"/><path d="m223.097656 61.902344c-3.800781-5.941406-8.285156-11.621094-13.402344-16.972656-.496093-.523438-6.09375-6.667969-7.210937-6.195313-.296875.121094 4.9375 6.515625 5.234375 6.886719 4.554688 5.902344 8.550781 12.035156 11.953125 18.363281 9.019531 17.183594 13.539063 35.515625 13.304687 53.992187v7.628907c0 .523437-.394531 2.976562.359376 3.347656.757812.371094 2.207031-3.816406 2.308593-4.1875 1.164063-4.238281 1.859375-8.539063 2.074219-12.859375.761719-17.328125-4.265625-34.519531-14.621094-50.003906zm0 0" fill="#698597"/><path d="m196.753906 38.238281c-20.253906-22.300781-48.242187-36.128906-79.03125-36.128906-30.789062 0-58.910156 13.804687-79.03125 36.128906s-32.929687 53.175781-32.929687 87.34375c0 34.171875 12.546875 64.921875 32.929687 87.246094 20.382813 22.324219 48.242188 36.125 79.03125 36.125 30.789063 0 58.910156-13.800781 79.03125-36.125 20.117188-22.324219 32.929688-53.175781 32.929688-87.246094 0-34.070312-12.546875-65.019531-32.929688-87.34375zm0 0" fill="#d3e5ef"/><path d="m140.445312 79.570312c-11.234374-4.164062-24.03125-5.265624-36.222656-3.125-3.359375.625-6.617187 1.523438-9.714844 2.675782-.59375 31.691406 3.292969 62.070312 2.667969 93.789062 4.214844 1.039063 25.683594 6.019532 44.914063-2.726562 9.304687-4.609375 16.597656-11.175782 20.976562-18.882813 5.105469-7.808593 7.785156-16.394531 7.835938-25.097656-.066406-3.097656-.492188-35.3125-30.457032-46.632813zm0 0" fill="#163448"/><path d="m162.011719 108.832031c-.585938-2.367187-1.617188-4.664062-3.0625-6.8125-1.21875-1.785156-4.050781-6.171875-6.847657-6.890625-2.042968-.519531-1.121093.84375-.625 1.957032 1.316407 3 2.796876 5.972656 3.851563 9.046874 1.160156 3.34375 2.0625 6.734376 2.699219 10.15625.230468 1.238282 0 4.335938 1.152344 5.402344 1.152343 1.066406 2.207031-1.859375 2.472656-2.699218 1.023437-3.335938 1.144531-6.789063.359375-10.160157zm0 0" fill="#698597"/><path d="m155.820312 116.363281c-1.300781-7.789062-4.660156-15.304687-9.878906-22.101562-8.625-10.878907-21.632812-17.816407-36.21875-17.816407-25.917968 0-46.925781 22.003907-46.925781 49.136719 0 27.132813 21.007813 49.136719 46.925781 49.136719 25.914063 0 46.957032-21.878906 46.957032-49.136719 0-3.082031-.289063-6.164062-.859376-9.21875zm0 0" fill="#cd2536"/><path d="m74.914062 142.011719c-6.980468-19.03125 2.074219-34.691407-4.117187-36.253907-1.429687-.269531-2.945313-.011718-4.082031.695313-2.589844 6.332031-3.898438 12.925781-3.886719 19.550781-.324219 12.820313 4.886719 25.378906 14.851563 35.78125 1.117187.230469 2.316406.09375 3.292968-.371094 3.558594-2.132812-2.765625-10.433593-6.058594-19.402343zm0 0" fill="#f53e3f"/></svg>

<svg xmlns="http://www.w3.org/2000/svg" xmlns:xlink="http://www.w3.org/1999/xlink" width="250px" height="250px" viewBox="0 0 250 250" version="1.1">
<g id="surface1">
<path style=" stroke:none;fill-rule:nonzero;fill:rgb(8.627451%,20.392157%,28.235295%);fill-opacity:1;" d="M 172.054688 7.882812 C 157.457031 3.164062 141.832031 0.5 125.953125 0.03125 C 111.480469 0.214844 97.148438 2.242188 83.574219 6.027344 C 38.691406 19.035156 -0.429688 73.546875 0 128.058594 C 0 133.4375 1.515625 190.007812 52.0625 227.027344 C 62.535156 235.066406 75.132812 241.363281 89.042969 245.511719 C 128.554688 256.511719 165.765625 243.972656 171.363281 242.042969 C 230.835938 222.019531 249.902344 162.105469 249.867188 124.34375 C 249.902344 72.332031 213.449219 21.859375 172.054688 7.882812 Z M 172.054688 7.882812 "/>
<path style=" stroke:none;fill-rule:nonzero;fill:rgb(41.176471%,52.156866%,59.215689%);fill-opacity:1;" d="M 223.097656 61.902344 C 219.296875 55.960938 214.8125 50.28125 209.695312 44.929688 C 209.199219 44.40625 203.601562 38.261719 202.484375 38.734375 C 202.1875 38.855469 207.421875 45.25 207.71875 45.621094 C 212.273438 51.523438 216.269531 57.65625 219.671875 63.984375 C 228.691406 81.167969 233.210938 99.5 232.976562 117.976562 C 232.976562 120.453125 232.976562 123.054688 232.976562 125.605469 C 232.976562 126.128906 232.582031 128.582031 233.335938 128.953125 C 234.09375 129.324219 235.542969 125.136719 235.644531 124.765625 C 236.808594 120.527344 237.503906 116.226562 237.71875 111.90625 C 238.480469 94.578125 233.453125 77.386719 223.097656 61.902344 Z M 223.097656 61.902344 "/>
<path style=" stroke:none;fill-rule:nonzero;fill:rgb(82.745099%,89.803922%,93.725491%);fill-opacity:1;" d="M 196.753906 38.238281 C 176.5 15.9375 148.511719 2.109375 117.722656 2.109375 C 86.933594 2.109375 58.8125 15.914062 38.691406 38.238281 C 18.570312 60.5625 5.761719 91.414062 5.761719 125.582031 C 5.761719 159.753906 18.308594 190.503906 38.691406 212.828125 C 59.074219 235.152344 86.933594 248.953125 117.722656 248.953125 C 148.511719 248.953125 176.632812 235.152344 196.753906 212.828125 C 216.871094 190.503906 229.683594 159.652344 229.683594 125.582031 C 229.683594 91.511719 217.136719 60.5625 196.753906 38.238281 Z M 196.753906 38.238281 "/>
<path style=" stroke:none;fill-rule:nonzero;fill:rgb(8.627451%,20.392157%,28.235295%);fill-opacity:1;" d="M 140.445312 79.570312 C 129.210938 75.40625 116.414062 74.304688 104.222656 76.445312 C 100.863281 77.070312 97.605469 77.96875 94.507812 79.121094 C 93.914062 110.8125 97.800781 141.191406 97.175781 172.910156 C 101.390625 173.949219 122.859375 178.929688 142.089844 170.183594 C 151.394531 165.574219 158.6875 159.007812 163.066406 151.300781 C 168.171875 143.492188 170.851562 134.90625 170.902344 126.203125 C 170.835938 123.105469 170.410156 90.890625 140.445312 79.570312 Z M 140.445312 79.570312 "/>
<path style=" stroke:none;fill-rule:nonzero;fill:rgb(41.176471%,52.156866%,59.215689%);fill-opacity:1;" d="M 162.011719 108.832031 C 161.425781 106.464844 160.394531 104.167969 158.949219 102.019531 C 157.730469 100.234375 154.898438 95.847656 152.101562 95.128906 C 150.058594 94.609375 150.980469 95.972656 151.476562 97.085938 C 152.792969 100.085938 154.273438 103.058594 155.328125 106.132812 C 156.488281 109.476562 157.390625 112.867188 158.027344 116.289062 C 158.257812 117.527344 158.027344 120.625 159.179688 121.691406 C 160.332031 122.757812 161.386719 119.832031 161.652344 118.992188 C 162.675781 115.65625 162.796875 112.203125 162.011719 108.832031 Z M 162.011719 108.832031 "/>
<path style=" stroke:none;fill-rule:nonzero;fill:rgb(80.392158%,14.509805%,21.176471%);fill-opacity:1;" d="M 155.820312 116.363281 C 154.519531 108.574219 151.160156 101.058594 145.941406 94.261719 C 137.316406 83.382812 124.308594 76.445312 109.722656 76.445312 C 83.804688 76.445312 62.796875 98.449219 62.796875 125.582031 C 62.796875 152.714844 83.804688 174.71875 109.722656 174.71875 C 135.636719 174.71875 156.679688 152.839844 156.679688 125.582031 C 156.679688 122.5 156.390625 119.417969 155.820312 116.363281 Z M 155.820312 116.363281 "/>
<path style=" stroke:none;fill-rule:nonzero;fill:rgb(96.078432%,24.313726%,24.705882%);fill-opacity:1;" d="M 74.914062 142.011719 C 67.933594 122.980469 76.988281 107.320312 70.796875 105.757812 C 69.367188 105.488281 67.851562 105.746094 66.714844 106.453125 C 64.125 112.785156 62.816406 119.378906 62.828125 126.003906 C 62.503906 138.824219 67.714844 151.382812 77.679688 161.785156 C 78.796875 162.015625 79.996094 161.878906 80.972656 161.414062 C 84.53125 159.28125 78.207031 150.980469 74.914062 142.011719 Z M 74.914062 142.011719 "/>
</g>
</svg>
